icons/aurelia.svg

<?xml version="1.0" encoding="UTF-8" standalone="no"?>
<svg width="256px" height="249px" viewBox="0 0 256 249" version="1.1" xmlns="http://www.w3.org/2000/svg" xmlns:xlink="http://www.w3.org/1999/xlink" preserveAspectRatio="xMidYMid">
    <defs>
        <linearGradient x1="-388.147851%" y1="-113.677693%" x2="237.683809%" y2="370.654866%" id="linearGradient-1">
            <stop stop-color="#C06FBB" offset="0%"></stop>
            <stop stop-color="#6E4D9B" offset="100%"></stop>
        </linearGradient>
        <linearGradient x1="72.9454854%" y1="79.5146865%" x2="-97.0517904%" y2="-119.502084%" id="linearGradient-2">
            <stop stop-color="#6E4D9B" offset="0%"></stop>
            <stop stop-color="#77327A" offset="14%"></stop>
            <stop stop-color="#B31777" offset="29%"></stop>
            <stop stop-color="#CD0F7E" offset="84%"></stop>
            <stop stop-color="#ED2C89" offset="100%"></stop>
        </linearGradient>
        <linearGradient x1="-232.211989%" y1="-693.599872%" x2="250.775991%" y2="101.70976%" id="linearGradient-3">
            <stop stop-color="#C06FBB" offset="0%"></stop>
            <stop stop-color="#6E4D9B" offset="100%"></stop>
        </linearGradient>
        <linearGradient x1="-821.186214%" y1="-466.930382%" x2="101.985142%" y2="287.264085%" id="linearGradient-4">
            <stop stop-color="#C06FBB" offset="0%"></stop>
            <stop stop-color="#6E4D9B" offset="100%"></stop>
        </linearGradient>
        <linearGradient x1="-140.094614%" y1="-230.925718%" x2="418.49908%" y2="261.976742%" id="linearGradient-5">
            <stop stop-color="#C06FBB" offset="0%"></stop>
            <stop stop-color="#6E4D9B" offset="100%"></stop>
        </linearGradient>
        <linearGradient x1="191.083716%" y1="225.066658%" x2="20.3577022%" y2="24.5947708%" id="linearGradient-6">
            <stop stop-color="#6E4D9B" offset="0%"></stop>
            <stop stop-color="#77327A" offset="14%"></stop>
            <stop stop-color="#B31777" offset="29%"></stop>
            <stop stop-color="#CD0F7E" offset="84%"></stop>
            <stop stop-color="#ED2C89" offset="100%"></stop>
        </linearGradient>
        <linearGradient x1="-388.094004%" y1="-138.727507%" x2="237.674802%" y2="445.404664%" id="linearGradient-7">
            <stop stop-color="#C06FBB" offset="0%"></stop>
            <stop stop-color="#6E4D9B" offset="100%"></stop>
        </linearGradient>
        <linearGradient x1="11.503492%" y1="89.6525993%" x2="89.8192643%" y2="11.5773982%" id="linearGradient-8">
            <stop stop-color="#6E4D9B" offset="0%"></stop>
            <stop stop-color="#77327A" offset="14%"></stop>
            <stop stop-color="#B31777" offset="53%"></stop>
            <stop stop-color="#CD0F7E" offset="79%"></stop>
            <stop stop-color="#ED2C89" offset="100%"></stop>
        </linearGradient>
    </defs>
	<g>
		<path d="M167.876207,46.3687469 L144.195715,62.173447 L119.80056,25.6145151 L143.481051,9.80981504 L167.876207,46.3687469 L167.876207,46.3687469 L167.876207,46.3687469 Z" fill="url(#linearGradient-1)"></path>
		<path d="M187.128711,156.199437 L227.589323,216.829994 L179.391024,248.994707 L138.930412,188.363184 L131.871655,177.787122 L180.07092,145.622408 L187.128711,156.199437 L187.128711,156.199437 L187.128711,156.199437 Z" fill="url(#linearGradient-2)"></path>
		<path d="M126.421861,196.710267 L135.330053,210.059034 L98.6436403,234.541108 L82.6766922,210.615313 L90.6915535,205.266921 L119.36407,186.133238 L126.421861,196.710267 L126.421861,196.710267 L126.421861,196.710267 Z" fill="url(#linearGradient-3)"></path>
		<path d="M207.172143,127.536576 L217.46234,120.670006 L233.428323,144.595801 L209.744934,160.400501 L200.836742,147.051735 L214.229934,138.113604 L207.172143,127.536576 L207.172143,127.536576 L207.172143,127.536576 L207.172143,127.536576 Z M200.836742,147.051735 L193.778952,136.474706 L207.172143,127.536576 L214.229934,138.113604 L200.836742,147.051735 L200.836742,147.051735 L200.836742,147.051735 L200.836742,147.051735 Z" fill="url(#linearGradient-4)"></path>
		<path d="M41.1093181,130.966968 L33.0954225,136.315359 L8.69833531,99.7564274 L45.3847478,75.2743531 L62.4855008,100.900856 L33.8139497,120.034538 L62.4855008,100.900856 L69.781835,111.834251 L41.1093181,130.966968 L41.1093181,130.966968 L41.1093181,130.966968 Z" fill="url(#linearGradient-5)"></path>
		<path d="M130.488688,71.3224496 L82.2894234,103.487163 L74.994055,92.5537678 L34.9120223,32.4910791 L83.1112871,0.3263657 L123.19332,60.3890547 L130.488688,71.3224496 Z" fill="url(#linearGradient-6)"></path>
		<path d="M157.589904,53.2375841 L144.196713,62.1747484 L136.900379,51.2423191 L119.799626,25.6158165 L143.483014,9.81111647 L167.880102,46.3700483 L157.589904,53.2375841 L157.589904,53.2375841 L157.589904,53.2375841 Z" fill="url(#linearGradient-7)"></path>
		<path d="M97.7503053,215.84395 L90.6915487,205.266921 L119.364066,186.133238 L126.421857,196.710267 L97.7503053,215.84395 L97.7503053,215.84395 L97.7503053,215.84395 Z" fill="#714896"></path>
		<path d="M200.836744,147.051736 L193.778953,136.474708 L207.172145,127.536577 L214.229936,138.113606 L200.836744,147.051736 L200.836744,147.051736 L200.836744,147.051736 Z" fill="#6F4795"></path>
		<path d="M41.1093172,130.966965 L33.8139488,120.034536 L62.4854999,100.900853 L69.7818341,111.834248 L41.1093172,130.966965 L41.1093172,130.966965 L41.1093172,130.966965 Z" fill="#88519F"></path>
		<path d="M144.196718,62.1747499 L136.900384,51.2423206 L150.294542,42.3041905 L157.58991,53.2375855 L144.196718,62.1747499 L144.196718,62.1747499 L144.196718,62.1747499 Z" fill="#85509E"></path>
		<path d="M187.128711,156.199434 L138.930412,188.363182 L131.871655,177.787119 L180.07092,145.622405 L187.128711,156.199434 L187.128711,156.199434 L187.128711,156.199434 Z" fill="#8D166A"></path>
		<path d="M123.19332,60.3890532 L130.488688,71.3224482 L82.2894233,103.487162 L74.9940548,92.5537666 L123.19332,60.3890532 L123.19332,60.3890532 L123.19332,60.3890532 Z" fill="#A70D6F"></path>
		<path d="M27.4386316,51.6530056 L36.5361217,65.2857977 L22.9033297,74.3832878 L13.8058395,60.7504958 L27.4386316,51.6530056 L27.4386316,51.6530056 Z" fill="#9E61AD"></path>
		<path d="M76.5679915,215.084186 L85.6654817,228.716978 L72.0326896,237.814468 L62.9351995,224.181676 L76.5679915,215.084186 L76.5679915,215.084186 Z" fill="#8053A3"></path>
		<path d="M40.7042434,228.813811 L0.791684264,168.517994 L214.08857,25.8555586 L255.941111,85.1892808 L40.7042434,228.813811 L40.7042434,228.813811 L40.7042434,228.813811 L40.7042434,228.813811 Z" fill="url(#linearGradient-8)"></path>
	</g>
</svg>

<svg xmlns="http://www.w3.org/2000/svg" viewBox="0 0 255.149 248.668">
  <defs>
    <linearGradient id="a" x1="-69.72" x2="244.284" y1="-47.637" y2="195.371" gradientTransform="scale(.95818 1.04364)" gradientUnits="userSpaceOnUse">
      <stop offset="0%" stop-color="#C06FBB"/>
      <stop offset="100%" stop-color="#6E4D9B"/>
    </linearGradient>
    <linearGradient id="b" x1="209.603" x2="40.504" y1="219.221" y2="21.257" gradientTransform="scale(.96226 1.03922)" gradientUnits="userSpaceOnUse">
      <stop offset="0%" stop-color="#6E4D9B"/>
      <stop offset="14%" stop-color="#77327A"/>
      <stop offset="29%" stop-color="#B31777"/>
      <stop offset="84%" stop-color="#CD0F7E"/>
      <stop offset="100%" stop-color="#ED2C89"/>
    </linearGradient>
    <linearGradient id="c" x1="-37.961" x2="205.88" y1="-156.047" y2="245.473" gradientTransform="scale(1.04293 .95884)" gradientUnits="userSpaceOnUse">
      <stop offset="0%" stop-color="#C06FBB"/>
      <stop offset="100%" stop-color="#6E4D9B"/>
    </linearGradient>
    <linearGradient id="d" x1="-131.951" x2="234.455" y1="-64.777" y2="234.562" gradientTransform="scale(.99898 1.00102)" gradientUnits="userSpaceOnUse">
      <stop offset="0%" stop-color="#C06FBB"/>
      <stop offset="100%" stop-color="#6E4D9B"/>
    </linearGradient>
    <linearGradient id="e" x1="-76.85" x2="264.24" y1="-65.708" y2="235.269" gradientTransform="scale(1.00035 .99965)" gradientUnits="userSpaceOnUse">
      <stop offset="0%" stop-color="#C06FBB"/>
      <stop offset="100%" stop-color="#6E4D9B"/>
    </linearGradient>
    <linearGradient id="f" x1="226.01" x2="56.485" y1="223.797" y2="24.736" gradientTransform="scale(.96254 1.03892)" gradientUnits="userSpaceOnUse">
      <stop offset="0%" stop-color="#6E4D9B"/>
      <stop offset="14%" stop-color="#77327A"/>
      <stop offset="29%" stop-color="#B31777"/>
      <stop offset="84%" stop-color="#CD0F7E"/>
      <stop offset="100%" stop-color="#ED2C89"/>
    </linearGradient>
    <linearGradient id="g" x1="-69.71" x2="244.278" y1="-60.207" y2="232.889" gradientTransform="scale(.95823 1.0436)" gradientUnits="userSpaceOnUse">
      <stop offset="0%" stop-color="#C06FBB"/>
      <stop offset="100%" stop-color="#6E4D9B"/>
    </linearGradient>
    <linearGradient id="h" x1="26.884" x2="205.101" y1="233.006" y2="55.336" gradientTransform="scale(1.12123 .89188)" gradientUnits="userSpaceOnUse">
      <stop offset="0%" stop-color="#6E4D9B"/>
      <stop offset="14%" stop-color="#77327A"/>
      <stop offset="53%" stop-color="#B31777"/>
      <stop offset="79%" stop-color="#CD0F7E"/>
      <stop offset="100%" stop-color="#ED2C89"/>
    </linearGradient>
  </defs>
  <path fill="url(#a)" d="m167.876 46.369-23.68 15.804L119.8 25.615 143.48 9.81l24.395 36.559z" style="fill:url(#a)" transform="translate(-.792 -.326)"/>
  <path fill="url(#b)" d="m187.129 156.2 40.46 60.63-48.198 32.165-40.46-60.632-7.06-10.576 48.2-32.165 7.058 10.577z" style="fill:url(#b)" transform="translate(-.792 -.326)"/>
  <path fill="url(#c)" d="m126.422 196.71 8.908 13.349-36.686 24.482-15.967-23.926 8.015-5.348 28.672-19.134 7.058 10.577z" style="fill:url(#c)" transform="translate(-.792 -.326)"/>
  <path fill="url(#d)" d="m207.172 127.537 10.29-6.867 15.966 23.926-23.683 15.804-8.908-13.348 13.393-8.938-7.058-10.577zm-6.335 19.515-7.058-10.577 13.393-8.938 7.058 10.577-13.393 8.938z" style="fill:url(#d)" transform="translate(-.792 -.326)"/>
  <path fill="url(#e)" d="m41.11 130.967-8.015 5.348L8.698 99.756l36.687-24.482 17.1 25.627-28.671 19.134L62.486 100.9l7.296 10.933-28.673 19.133z" style="fill:url(#e)" transform="translate(-.792 -.326)"/>
  <path fill="url(#f)" d="m130.489 71.322-48.2 32.165-7.295-10.933L34.912 32.49 83.112.326l40.081 60.063z" style="fill:url(#f)" transform="translate(-.792 -.326)"/>
  <path fill="url(#g)" d="m157.59 53.238-13.393 8.937-7.297-10.933-17.1-25.626L143.483 9.81 167.88 46.37l-10.29 6.868z" style="fill:url(#g)" transform="translate(-.792 -.326)"/>
  <path fill="#714896" d="m96.959 215.518-7.06-10.577 28.673-19.134 7.058 10.577-28.671 19.134z"/>
  <path fill="#6f4795" d="m200.045 146.725-7.058-10.577 13.393-8.938 7.058 10.577-13.393 8.938z"/>
  <path fill="#88519f" d="m40.318 130.64-7.296-10.932 28.672-19.134 7.296 10.934-28.672 19.133z"/>
  <path fill="#85509e" d="m143.405 61.848-7.296-10.932 13.394-8.938 7.295 10.933-13.393 8.937z"/>
  <path fill="#8d166a" d="m186.337 155.873-48.198 32.164-7.059-10.576 48.2-32.165 7.057 10.577z"/>
  <path fill="#a70d6f" d="m122.402 60.063 7.295 10.933-48.2 32.165-7.295-10.934 48.2-32.164z"/>
  <path fill="#9e61ad" d="m26.647 51.327 9.097 13.632-13.632 9.098-9.098-13.633z"/>
  <path fill="#8053a3" d="m75.776 214.758 9.098 13.633-13.633 9.097-9.097-13.633z"/>
  <path fill="url(#h)" d="M40.704 228.814.792 168.518 214.089 25.856l41.852 59.333L40.704 228.814z" style="fill:url(#h)" transform="translate(-.792 -.326)"/>
</svg>
